!!!!SEGMENT: pl-wn--mus-iii-118-771--004_badarzewska-tekla--priere-exaucee.krn
!!!cenid: 18xx:3543
!!!COM: Bądarzewska, Tekla
!!!COM-rismID: pe30005936
!!!CDT: ~1830-1861/09/29
!!!CNT: Polish
!!!OTL: Priére exaucee
!!!PDT:
!!!AGN:
!!!SMS-siglum: PL-Wn
!!!SMS-shelfmark: Mus.III.118.771
!!!SMS-shelfwork: 004 W
!!!SMS-variant:
!!!SMS-altvar:
!!!NIFC-rismSourceID:
!!!NIFC-islandoraID:
!!!URL-pdf-islandora:
!!!URL-scan: https://polona.pl/item/pieces-favorites,MTk4NjI5Mw/4 @EN{Scan on Polona} @PL{Skany w portalu Polona}
!!!ONB-nifc:
!!!OMD: Lento.
!!!OMD-mod: Lento
!!!AIN: 1 piano
!!!key: E-
**kern	**kern	**dynam
*part1	*part1	*part1
*staff2	*staff1	*
*I"PIANO.	*I"PIANO.	*
*mI"Pianoforte	*mI"Pianoforte	*
*Ipiano	*Ipiano	*
*ICklav	*ICklav	*
*clefF4	*clefG2	*
*k[b-e-a-]	*k[b-e-a-]	*
*E-:	*E-:	*
*M3/4	*M3/4	*
16GG 16GGG/	16r	f
=1	=1	=1
[>4C [<4CC/	8.r	.
.	16g 16e- 16G/	.
8.C]L 8.CC/]	4g 4e- 4G/	.
16BBnK 16BBBn/	.	.
8.D 8.DD/	4r	.
16CJk 16CC/	.	.
=2	=2	=2
[>4E- [<4EE-/	8.r	.
.	16cc 16g 16c/	.
8.E-]L 8.EE-/]	4cc 4g 4c/	.
16DK 16DD/	.	.
8.C 8.CC/	4r	.
!LO:SIC:s=16BB-Jk 16BBB-	!	!
16BB-XJk 16BBB-X/	.	.
=3	=3	=3
!	!LO:MO:mod=!LO&colon;TX&colon;b&colon;i&colon;t=pesante	!
!	!LO:TX:b:B:t=pesante	!
2.AA- 2.AAA-/	4r	.
.	4cc 4e- 4c/	.
.	4cc 4f 4d/	.
=4	=4	=4
[>4GG [<4GGG/	(>>4cc [<4g [<4d/	.
8GG]L 8GGG/]	8bn) 8g] 8d/]	.
16r	8r	.
16DK 16DD/	.	.
8.G 8.GG/	8.r	.
16DJk 16DD/	16Bn 16G/	.
!!LO:LB:g=original
=5	=5	=5
(>4F (<4FF\	(>>4d 4Bn [4G/	.
8E-L) 8EE-\)	8c) 8G/]	.
16r	8r	.
16GK 16GG\	.	.
8.c 8.C\	8.r	.
16GJk 16GG\	16en 16c/	.
=6	=6	=6
(>4B- (<4BB-\	(>>4g 4en [4c/	.
8A-) 8AA-\)	8f) 8c/]	.
8r	8r	.
4F#X 4AAn\	4cc 4e-X 4c/	.
=7	=7	=7
*ped	*	*
[>4G:: [<4BB-::\	[>4b-:: [<4e-:: [<4B-::/	.
8G]L 8BB-\]	8b-]L 8e-] 8B-/]	.
!LO:TX:t=P:problem=slur up/down	!	!
(>>16B-\L	(>>16g/L	p
16e-\JJ	16b-/JJ	.
16g>\LL	16ee-/LL	.
16b->\	16gg/	.
16ee->\	16bb-/	.
!LO:SIC:s=16gg>JJ	!LO:SIC:s=16eee-JJ	!
16gg>\JJ)<	16eee-/JJ)	.
=8	=8	=8
!LO:SIC:s=8bb->)<	!LO:SIC:s=8ggg)	!
8bb->\	8ggg/	.
*Xped	*	*
8r	8r	.
4r	4r	.
4r	4r	.
=9	=9	=9
*ped	*	*
[>4An:: [>4F:: [<4BB-^>::\	[>4cc:: [<4e-:: [<4c^>::/	.
8A]L 8F] 8BB-\]	8cc]L 8e-] 8c/]	.
!LO:TX:t=P:problem=slur up/down	!	!
(>>16A\L	(>>16f/L	p
16c\JJ	16an/JJ	.
16f>\LL	16cc/LL	.
16an>\	16ff/	.
16cc>\	16aan/	.
16ff>\JJ	16ccc/JJ	.
!!LO:LB:g=original
=10	=10	=10
8aan>\)<<	8fff/)	.
!LO:MO:mod=*Xped	!	!
*null	*	*
8r	8r	.
!LO:MO:mod=*null:null	!	!
*Xped	*	*
4r	4r	.
4r	4r	.
=11	=11	=11
*ped	*	*
[>4A-X:: [>4F:: [<4BB-^>::\	[>4dd:: [<4f:: [<4d^>::/	.
8A-]L 8F] 8BB-\]	8dd]L 8f] 8d/]	.
!LO:TX:t=P:problem=slur up/down	!	!
(>>16d\L	(>>16b-/L	.
16f\JJ	16dd/JJ	.
16b->\LL	16ff/LL	.
16dd>\	16bb-/	.
16ff>\	16ddd/	.
!LO:SIC:s=16bb->JJ	!LO:SIC:s=16fffJJ	!
16bb->\JJ)<	16fff/JJ)	.
=12	=12	=12
!LO:SIC:s=8ddd>)<	!LO:SIC:s=8bbb-)	!
8ddd>\	8bbb-/	.
!LO:MO:mod=*Xped	!	!
*null	*	*
8r	8r	.
!LO:MO:mod=*null:null	!	!
*Xped	*	*
4r	4r	.
4r;	4r;	.
=13||	=13||	=13||
!!!OMD: Andante espressivo.
!!!OMD-mod: Andante espressivo
*M4/4	*M4/4	*
*met(c)	*met(c)	*
*mmet(c)	*mmet(c)	*
!	!LO:TX:b:B:t=simplice:mod=	!LO:DY:rj:mod=%s semplice
8EE-'\L	(8.b-\L	p
(8B-\J	.	.
.	16ee-\Jk)	.
4e- 4G\)	(4.ee-\	.
8EE-'\L	.	.
(8Bn\J	8dd\L	.
4e- 4G\)	8cc\	.
.	8bn\J	.
=14	=14	=14
8AA-'\L	4dd\	.
(8c\J	.	.
4f 4A-\)	2.cc\)	.
8AA-'\L	.	.
(8c\J	.	.
4f 4A-\)	.	.
!!LO:LB:g=original
=15	=15	=15
8BB-'\L	(8.a-\L	.
(8B-\J	.	.
.	16dd\Jk)	.
4f 4A-\)	(4.dd\	.
8BB-'\L	.	.
(8B-\J	8cc\L	.
4d 4A-\)	8b-\	.
.	8an\J	.
=16	=16	=16
8EE-'\L	4cc\	.
(>8B-\J	.	.
4e- 4G\)	2.b-\)	.
8EE-'\L	.	.
(>8B-\J	.	.
4e- 4G\)	.	.
=17	=17	=17
8EE-'\L	(8.b-\L	.
(8B-\J	.	.
.	16gg\Jk)	.
4e- 4G\)	(4.gg\	<
8CC'\L	.	.
(8G\J	8gg\L	.
4c 4E-\)	8ff\	.
.	8ee-\J	.
=18	=18	=18
8FF'\L	4ee-\	[
(8F\J	.	>
4B- 4D\)	2.dd\)	.
8FF'\L	.	.
(8F\J	.	.
4B- 4D\)	.	]]
=19	=19	=19
8FF'\L	(8.f\L	.
(8F\J	.	.
.	16cc\Jk)	.
4An 4E-\)	(4.cc\	.
8FF'\L	.	.
(8F\J	8ccL 8e-\	.
4A 4E-\)	8ee- 8g\	.
.	8ddJ 8f\	.
!!LO:PB:g=original
=20	=20	=20
8BBB-'\L	1b- 1d)	.
(8F\J	.	.
4B- 4D\)	.	.
8BBB-'\L	.	.
(8F\J	.	.
4B- 4D\)	.	.
=21	=21	=21
8BB-'\L	(8.a-\L	mf
(8B-\J	.	.
.	16ff\Jk)	.
4d 4A-\)	(4.ff\	.
8BB-'\L	.	.
(8B-\J	8ff\L	.
4f 4A-\)	8ee-\	.
.	8dd\J	.
=22	=22	=22
8EE-'\L	4ee-\	.
(8B-\J	.	.
4e- 4G\)	2.b-\)	.
8EE-'\L	.	.
(8B-\J	.	.
4e- 4G\)	.	.
=23	=23	=23
8BB-'\L	(8.fL 8.d/	p
(8B-\J	.	.
.	16ccJk 16a-/)	.
4d 4A-\)	(4.cc 4.a-/	.
8BBB-'\L	.	.
(8B-\J	8ccL 8a-/	.
4d 4A-\)	8b- 8g/	.
.	8a-J 8f/	.
=24	=24	=24
8EE-'\L	4f#X 4d/	.
(8B-\J	.	.
4e- 4B-\)	2.g 2.e-/)	.
8EE-'\L	.	.
(8B-\J	.	.
4e- 4G\)	.	.
!!LO:LB:g=original
=25	=25	=25
8EE-'^<\L	(8.b-\L	.
(8B-\J	.	.
.	16gg\Jk)	.
4e- 4G\)	(4.gg\	.
8DD'^<\L	.	.
(8Bn\J	8ff\L	<
.	(<16qqgg/LL	.
.	16qqbb-/JJ	.
4f 4G\)	8aa-\)	.
.	8gg\J	[[
=26	=26	=26
8CC'^<\L	4ff\	f
(8c\J	.	.
!	!LO:MO:mod=!LO&colon;TX&colon;b&colon;i&colon;t=con affetto	!
!	!LO:TX:a:B:t=con affetto.	!
4e- 4G\)	4.ee-\)	.
8AAn'^<\L	.	.
(8F#X\J	(8cc\L	.
4c 4E-\)	8dd\	.
.	8ee-\J)	.
=27	=27	=27
8BB-'\L	(8ee-\L	.
(8B-\J	8g\	.
4e- 4G\)	8dd\	.
.	8cc\J	>
8BBB-'\L	8b-\L)	.
(8B-\J	(8fsSSs\	.
4d 4A-\)	8.a-\	.
!	!	!LO:MO:mod=]]
.	16g\Jk	]
=28	=28	=28
8EE-'\L	2.e-/)	.
(8B-\J	.	.
4e- 4G\)	.	.
8EE-'\L	.	.
(8B-\J	.	.
4e-\)	4r	.
=29	=29	=29
8EE-'\L	(8.bb-L 8.b-\	p
(8B-\J	.	.
.	16eee-Jk 16ee-\)	.
4e- 4G\)	4.eee- 4.ee-\	.
8EE-'\L	.	.
(8Bn\J	(8dddL 8dd\	.
4e- 4G\)	8ccc 8cc\	.
.	8bbnJ 8bn\	.
!!LO:LB:g=original
=30	=30	=30
8AA-'\L	4ddd 4dd\	.
(8c\J	.	.
4f 4A-\)	2.ccc 2.cc\)	.
8AA-'\L	.	.
(8c\J	.	.
4f 4A-\)	.	.
=31	=31	=31
8BB-'\L	(8.aa-L 8.a-\	.
(8B-\J	.	.
.	16dddJk 16dd\)	.
4f 4A-\)	4.ddd 4.dd\	.
8BB-'\L	.	.
(8B-\J	(8cccL 8cc\	.
4d 4A-\)	8bb- 8b-\	.
.	8aanJ 8an\	.
=32	=32	=32
8EE-'\L	4ccc 4cc\	.
(8B-\J	.	.
4e- 4G\)	2.bb- 2.b-\)	.
8EE-'\L	.	.
(8B-\J	.	.
4e- 4G\)	.	.
=33	=33	=33
8EE-'\L	8.bb-L 8.b-\	.
(8B-\J	.	.
!	!	!LO:MO:mod=.
.	16gggJk 16gg\	<
!	!	!LO:MO:null:mod=<
4e- 4G\)	(4.ggg 4.gg\	.
8CC'\L	.	.
(>[<<8G\J	8gggL 8gg\	.
4g 4e- 4c 4G\])	8fff 8ff\	.
!	!	!LO:MO:mod=[[
.	8eee-J 8ee-\	[
=34	=34	=34
8FF'\L	4eee- 4ee-\	>
(>[<<8F\J	.	.
4f 4d 4B- 4F\])	2.ddd 2.dd\)	.
8FF'\L	.	.
(>[<<8F\J	.	.
!	!	!LO:MO:mod=]]
4f 4d 4B- 4F\])	.	]
!!LO:LB:g=original
=35	=35	=35
8FF'\L	(8.ffL 8.f\	.
(>[<<8F\J	.	.
.	16cccJk 16cc\)	.
4f 4e- 4An 4F\])	4.ccc 4.cc\	<
8FF'\L	.	.
(>[<<8F\J	(8cccL 8ee- 8cc\	.
4f 4e- 4A 4F\])	8eee- 8gg 8ee-\	.
.	8dddJ 8ff 8dd\	[[
=36	=36	=36
8BBB-'\L	1bb- 1dd 1b-)	>
(8F\J	.	.
4B- 4D\)	.	.
8BBB-'\L	.	.
(8F\J	.	.
!	!	!LO:MO:mod=]]
4B- 4D\)	.	]
=37	=37	=37
8BB-'\L	(8.aa-L 8.a-\	p
(8B-\J	.	.
.	16fffJk 16ff\)	.
4d 4A-X\)	4.fff 4.ff\	.
8BB-'\L	.	.
(8B-\J	(8fffL 8ff\	.
4f 4A-\)	8eee- 8ee-\	.
.	8dddJ 8dd\	.
=38	=38	=38
8EE-'\L	4eee- 4ee-\	.
(8B-\J	.	.
4e- 4G\)	2.bb- 2.b-\)	.
8EE-'\L	.	.
(8B-\J	.	.
4e- 4G\)	.	.
=39	=39	=39
8D'\L	(8.ffL 8.dd 8.f\	.
(8B-\J	.	.
.	16cccJk 16aa- 16cc\)	.
4d 4A-\)	4.ccc 4.aa- 4.cc\	.
8BBB-'\L	.	.
!	!LO:MO:mod=!LO&colon;TX&colon;b&colon;i&colon;t=dolce	!
!	!LO:TX:b:B:t=dolce.	!
(8B-\J	(8cccL 8aa- 8cc\	.
4d 4A-\)	8bb- 8gg 8b-\	.
.	8aa-J 8ff 8a-\	.
!!LO:LB:g=original
=40	=40	=40
8EE-'\L	4ff#X 4dd 4f#X\	.
(8B-\J	.	.
4e- 4G\)	2.gg 2.ee- 2.g\)	.
8EE-'\L	.	.
(8B-\J	.	.
4e- 4G\)	.	.
=41	=41	=41
8EE-'\L	(8.bb-L 8.b-\	<
(8B-\J	.	.
.	16gggJk 16gg\)	.
!	!	!LO:MO:mod=.
4e- 4G\)	4.ggg 4.gg\	[
8DD'\L	.	.
!	!LO:MO:mod=!LO&colon;TX&colon;b&colon;i&colon;t=con molto espressione	!
!	!LO:TX:b:B:t=con molto espressione.	!
(8Bn\J	(8gggL 8gg\	.
4f 4G\)	8aaa- 8aa-\	.
!	!	!LO:MO:null:mod=[[
.	8gggJ 8gg\	.
=42	=42	=42
8CC'\L	4fff 4ff\	f
(8c\J	.	.
4e- 4G\)	4.eee- 4.ee-\)	.
8AAn'\L	.	.
(8F#X\J	(8cccL 8cc\	.
4c 4E-\)	8ddd 8dd\	.
.	8eee-J 8ee-\)	.
=43	=43	=43
8BB-'\L	(8eee-L 8ee-\	.
(8B-\J	8gg 8g\	.
4e- 4G\)	8ddd 8dd\	.
.	8cccJ 8cc\	>
8BBB-'\L	8bb-L 8b-\)	.
(8B-\J	(8ff 8f\	.
4d 4A-\)	8.aa- 8.a-\	.
!	!	!LO:MO:mod=]]
.	16ggJk 16g\	]
=44	=44	=44
8EE-'\L	2.ee- 2.e-/)	.
(8B-\J	.	.
4e- 4G\)	.	.
8EE-'\L	.	.
(8B-\J	.	.
4e- 4G\)	4r	.
!!LO:PB:g=original
=45	=45	=45
*^	*	*
!LO:MO:mod=!LO&colon;TX&colon;a&colon;i&colon;t=cantando	!	!	!
!LO:TX:a:B:t=cantando	!	!	!
!LO:MO:mod=!LO&colon;TX&colon;a&colon;i&colon;t=m.d.&colon;rj	!	!	!
!LO:TX:a:B:t=m.d.:rj	!	!	!
8.B-/L	4EE-\	4ryy	.
16e-/Jk	.	.	.
!	!	!LO:MO:mod=!LO&colon;TX&colon;a&colon;i&colon;t=m.s.	!
!LO:SIC:s=(>4.e-/	!	!LO:TX:a:B:t=m.g.	!
4.e-/	4ryy	(8g'/L 8b-	.
.	.	8b-'/J 8ee-	.
.	4ryy	4ee-'/) 4gg	.
!LO:SIC:s=8dL	!	!	!
(>8d/L	.	.	.
8c/	4r	4ryy	.
8Bn/J	.	.	.
=46	=46	=46	=46
(<<8qBn/	.	.	.
4d/)	4AA-\	4ryy	.
2c/)	4ryy	(8f'/L 8a-	.
.	.	8a-'/J 8cc	.
.	4ryy	4cc'/) 4ff	.
(8F/L	4r	4ryy	.
8G/J	.	.	.
=47	=47	=47	=47
8.A-/L	4BB-\	4ryy	.
16d/Jk)	.	.	.
(>>4.d/	4ryy	(8f'/L 8a-	.
.	.	8a-'/J 8b-	.
.	4ryy	4b-'/) 4dd	.
8c/L	.	.	.
8B-/	4r	4ryy	.
8An/J	.	.	.
=48	=48	=48	=48
(<<8qAn/	.	.	.
4c/)	4EE-\	4ryy	.
2B-/)	4ryy	(8e-'/L 8g	.
.	.	8g'/J 8b-	.
.	4ryy	4b-'/) 4ee-	.
(8G/L	4r	4ryy	.
8A-X/J	.	.	.
!!LO:LB:g=original
=49	=49	=49	=49
8.B-/L	4EE-\	4ryy	.
!LO:SIC:s=16gJk)	!	!	!
16g/Jk	.	.	.
!LO:SIC:s=(>4.g/	!	!	!
(>4.g/)	4ryy	(8b-'/L 8ee-	.
.	.	8ee-'/J 8gg	.
.	4ryy	4gg'/) 4bb-	.
8g/L	.	.	.
8f/	4r	4ryy	.
8e-/J	.	.	.
=50	=50	=50	=50
(<<16qqd/LL	.	.	.
16qqe-/	.	.	.
16qqf/JJ	.	.	.
4e-/))	4FF\	4ryy	.
(>>4.d/	4ryy	(8b-'/L 8dd	.
.	.	8dd'/J 8ff	.
.	4ryy	4ff'/) 4bb-	.
8B-/L	.	.	.
8An/	4r	4ryy	.
8G/J	.	.	.
=51	=51	=51	=51
8.F/L	4FF\	4ryy	.
16c/Jk)	.	.	.
(>>4.c/	4ryy	(8f'/L 8an	.
.	.	8a'/J 8ee-	.
.	4ryy	4ee-'/) 4ff	.
8c/L	.	.	.
8e-/	4r	4ryy	.
8d/J	.	.	.
=52	=52	=52	=52
2.B-/)	4BBB-\	4ryy	.
.	4ryy	(8b-'/L 8dd	.
.	.	8dd'/J 8ff	.
.	4ryy	4ff'/) 4bb-	.
!LO:SIC:s=((<16<qqALL	!	!	!
(<<16qqAn/LL	.	.	.
16qqB-/	.	.	.
16qqc/JJ	.	.	.
!LO:SIC:s=8B-L)	!	!	!
(8B-/L)	4r	4ryy	.
8Any/J	.	.	.
!!LO:LB:g=original
=53	=53	=53	=53
8.A-X/L	4BBB-\	4ryy	.
16f/Jk)	.	.	.
(>>4.f/	4ryy	(8a-X'/L 8b-	.
.	.	8b-'/J 8dd	.
.	4ryy	4dd'/) 4ff	.
8f/L	.	.	.
8e-/	4r	4ryy	.
8d/J	.	.	.
=54	=54	=54	=54
4e-/	4EE-\	4ryy	.
2B-/)	4ryy	(8g'/L 8b-	.
.	.	8b-'/J 8ee-	.
.	4ryy	4ee-'/) 4gg	.
(8A-/L	4r	4ryy	.
8G/J	.	.	.
=55	=55	=55	=55
8.F/L	4BBB-\	4ryy	.
16c/Jk)	.	.	.
(>>4.c/	4ryy	(8ff'/L 8aa-	.
.	.	8dd'/J 8ff	.
.	4ryy	4a-'/) 4dd	.
8c/L	.	.	.
8B-/	4r	4ryy	.
8A-/J	.	.	.
=56	=56	=56	=56
4F#X/	4EE-\	4ryy	.
2G/)	4ryy	(8ee-'/L 8gg	.
.	.	8b-'/J 8ee-	.
.	4ryy	4g'/) 4b-	.
(8G/L	4r	4ryy	.
8A-/J	.	.	.
!!LO:LB:g=original
=57	=57	=57	=57
8.B-/L	4EE-\	4r	.
16g/Jk)	.	.	.
(4.g/	4ryy	4b-/ 4ee- 4gg	<
.	4DD\	4r	.
8g/L	.	.	[
16qqg/LL	.	.	.
16qqb-/JJ	.	.	.
8.a-/	4ryy	4bn/ 4ff	.
16g/Jk	.	.	.
=58	=58	=58	=58
4d/)	4CC\	4r	.
4.e-/	4ryy	4g/ 4cc 4ee-	.
.	4AAn\	4r	.
(<8c/L	.	.	f
8d/	4ryy	4f#X/ 4an 4ee-	.
8e-/J)	.	.	.
=59	=59	=59	=59
(8e-/L	4BB-\	4r	.
8G/	.	.	.
8d/	4ryy	4g/ 4b- 4ee-	.
8c/J	.	.	.
8B-/L)	4BBB-\	4r	.
(8FsSSs</	.	.	.
8.A-/	4ryy	4a-^/ 4b- 4dd	.
16G/Jk	.	.	.
=60	=60	=60	=60
2.E-/)	4EE-\	4r	.
.	4ryy	(8e-'/L 8g	.
.	.	8g'/J 8b-	.
.	2ryy	4b-'/) 4ee-	.
4r	.	4r	.
*v	*v	*	*
!!LO:LB:g=original
=61	=61	=61
!	!LO:MO:mod=!LO&colon;TX&colon;b&colon;i&colon;t=dolce	!
!	!LO:TX:b:B:t=dolce.	!
8EE-'\L	(8.b-\L	.
(8B-\J	.	.
.	16ee-\Jk)	.
4e- 4G\)	(4.ee-\	.
8EE-'\L	.	.
(8Bn\J	8dd\L	.
4e- 4G\)	8cc\	.
.	8bn\J	.
=62	=62	=62
.	8qbn/	.
8AA-'\L	4dd\	.
(8c\J	.	.
4f 4A-\)	4cc\)	.
*	*8va	*
!	!LO:TUP:a	!
8AA-'\L	(24cccc\LL	pp
.	24dddd\	.
.	24cccc\	.
(8c\J	24aaa-\	.
.	24fff\	.
.	24ddd\JJ	.
*	*X8va	*
!	!LO:TUP:a	!
4f 4A-\)	24ccc\LL	.
.	24ddd\	.
.	24ccc\	.
.	24aa-\	.
.	24ff\	.
.	24cc\JJ)	.
=63	=63	=63
8BB-'\L	(8.a-\L	.
(8B-\J	.	.
.	16dd\Jk)	.
4f 4A-\)	(4.dd\	.
8BB-'\L	.	.
(8B-\J	8cc\L	.
4d 4A-\)	8b-\	.
!	!LO:SIC:s=8aJ	!
.	8a-\J	.
!!LO:PB:g=original
=64	=64	=64
.	8qan/	.
8EE-'\L	4cc\	.
(8B-\J	.	.
4e- 4G\)	4b-\)	.
*	*8va	*
!	!LO:TUP:a	!
8EE-'\L	(24bbb-\LL	pp
.	24cccc\	.
.	24bbb-\	.
(8B-\J	24ggg\	.
.	24eee-\	.
.	24ccc\JJ	.
*	*X8va	*
!	!LO:TUP:a	!
4e- 4G\)	24bb-\LL	.
.	24ccc\	.
.	24bb-\	.
.	24gg\	.
.	24ee-\	.
.	24cc\JJ)	.
=65	=65	=65
8EE-'\L	(8.b-\L	.
(8B-\J	.	.
.	16gg\Jk)	.
4e- 4G\)	(4.gg\	.
8CC'\L	.	.
(8G\J	8gg\L	.
4c 4E-\)	8ff\	.
.	8ee-\J	.
=66	=66	=66
.	(<16qqdd/LL	.
.	16qqee-/	.
.	16qqff/JJ	.
8FF'\L	4ee-\)	.
(8F\J	.	.
4B- 4D\)	4dd\)	.
!	!LO:TUP:a	!
8FF'\L	(24fff\LL	pp
.	24ggg\	.
.	24fff\	.
(8F\J	24ddd\	.
.	24bb-\	.
.	24gg\JJ	.
!	!LO:TUP:a	!
4B- 4D\)	24ff\LL	.
.	24gg\	.
.	24ff\	.
.	24dd\	.
.	24b-\	.
.	24g\JJ)	.
!!LO:LB:g=original
=67	=67	=67
8FF'\L	(8.f\L	.
(8F\J	.	.
.	16cc\Jk)	.
4An 4E-\)	(4.cc\	.
8FF'\L	.	.
(8F\J	8ccL 8e-\	.
4A 4E-\)	8ee- 8g^\	.
.	8ddJ 8f\	.
=68	=68	=68
8BBB-'\L	4b- 4d/)	.
(8F\J	.	.
*	*8va	*
!	!LO:TUP:a	!
4B- 4D\)	(24ffff\LL	pp
.	24gggg\	.
.	24ffff\	.
.	24dddd\	.
.	24bbb-\	.
.	24ggg\JJ	.
*	*X8va	*
!	!LO:TUP:a	!
8BBB-'\L	24fff\LL	.
.	24ggg\	.
.	24fff\	.
(8F\J	24ddd\	.
.	24bb-\	.
.	24gg\JJ	.
*	*Xtuplet	*
4B- 4D\)	24ff\LL	.
.	24gg\	.
.	24ff\	.
.	24dd\	.
.	24b-\	.
.	24an\JJ)	.
=69	=69	=69
8BB-'\L	(8.a-X\L	.
(8B-\J	.	.
.	16ff\Jk)	.
4d 4A-\)	(4.ff\	.
8BB-\L	.	.
(8B-\J	8ff\L	.
4f 4A-\)	8ee-\	.
.	8dd\J	.
!!LO:LB:g=original
=70	=70	=70
8EE-'\L	4ee-\	.
(8B-\J	.	.
4e- 4G\)	4b-\)	.
8EE-'\L	(24eee-\LL	pp
.	24fff\	.
.	24eee-\	.
(8B-\J	24bb-\	.
.	24gg\	.
.	24ff\JJ	.
4e- 4G\)	24ee-\LL	.
.	24ff\	.
.	24ee-\	.
.	24b-\	.
.	24g\	.
.	24e-\JJ)	.
=71	=71	=71
8BB-'\L	(8.d/L	.
(8B-\J	.	.
.	16ccJk 16a-/)	.
4d 4A-\)	(>4.cc 4.a-/	.
8BBB-'\L	.	.
(8B-\J	8ccL 8a-/	.
4d 4A-\)	8b- 8g/	.
.	8a-J 8f/	.
=72	=72	=72
8EE-'\L	4f#X 4d/	.
(8B-\J	.	.
4e- 4G\)	4g 4e-/)	.
!	!LO:MO:mod=*8va	!
*	*null	*
8EE-'\L	(24bbb-\LL	pp
.	24cccc\	.
.	24bbb-\	.
(8B-\J	24ggg\	.
.	24eee-\	.
.	24ccc\JJ	.
!	!LO:MO:mod=*X8va	!
*	*null	*
4e- 4G\)	24bb-\LL	.
.	24ccc\	.
.	24bb-\	.
.	24gg\	.
.	24ee-\	.
.	24cc\JJ)	.
!!LO:LB:g=original
=73	=73	=73
8EE-'^>\L	(8.b-\L	.
(8B-\J	.	.
.	16gg\Jk)	.
4e- 4G\)	(4.gg\	.
8DD'^>\L	.	.
(8Bn\J	8gg\L	<
.	(<16qqgg/LL	.
.	16qqbb-/JJ	.
4f 4G\)	8aa-\)	.
.	8gg\J	.
=74	=74	=74
!LO:SIC:s=8CC'^L	!	!
8CC'\L	4ff\	.
(8c\J	.	.
4e- 4G\)	4.ee-\)	[
8AAn'^>\L	.	.
(8F#X\J	(8cc\L	f
4c 4E-\)	8dd\	.
.	8ee-\J)	.
=75	=75	=75
8BB-'^>\L	(8ee-\L	.
(8B-\J	8g\	.
4e- 4G\)	8dd\	.
!	!	!LO:MO:mod=.
.	8cc\J	>
!LO:SIC:s=8BBB-'^L	!	!LO:MO:null:mod=>
8BBB-'\L	8b-\L)	.
(8B-\J	(8fsSSs\	.
4d 4A-\)	8.a-\	.
!	!	!LO:MO:mod=]]
.	16g\Jk	]
!!LO:LB:g=original
=76	=76	=76
!	!LO:TX:t=P:problem=brak zakończenia łuku	!
8EE-'\L	4e-/)	.
(8B-\J	.	.
!	!LO:MO:mod=*8va	!
*	*null	*
4e- 4G\)	(24bbb-\LL	pp
.	24cccc\	.
.	24bbb-\	.
.	24ggg\	.
.	24eee-\	.
.	24ccc\JJ	.
!	!LO:MO:mod=*X8va	!
*	*null	*
8EE-'\L	24bb-\LL	.
.	24ccc\	.
.	24bb-\	.
(8B-\J	24gg\	.
.	24ee-\	.
.	24cc\JJ)	.
4e- 4G\)	(8b-\L	.
.	8ee-J 8g\	.
=77	=77	=77
8EE-'\L	4dd 4a-\)	.
(8B-\J	.	.
!	!LO:MO:mod=*8va	!
*	*null	*
!	!LO:MO:mod=!LO&colon;TX&colon;b&colon;i&colon;t=con grazia	!
!	!LO:TX:b:B:t=con grazia.	!
4d 4A-\)	(24bbb-\LL	.
.	24cccc\	.
.	24bbb-\	.
.	24aaa-\	.
.	24fff\	.
.	24ddd\JJ	.
!	!LO:MO:mod=*X8va	!
*	*null	*
8EE-'\L	24bb-\LL	.
.	24ccc\	.
.	24bb-\	.
(8B-\J	24aa-\	.
.	24ff\	.
.	24dd\JJ)	.
4d 4A-\)	(8b-\L	.
.	8ffJ 8a-\	.
!!LO:PB:g=original
=78	=78	=78
8EE-'\L	4ee- 4g\)	.
(8B-\J	.	.
!	!LO:MO:mod=*8va	!
*	*null	*
4e- 4G\)	(24bbb-\LL	.
.	24cccc\	.
.	24bbb-\	.
.	24ggg\	.
.	24eee-\	.
.	24ccc\JJ	.
!	!LO:MO:mod=*X8va	!
*	*null	*
8EE-'\L	24bb-\LL	.
.	24ccc\	.
.	24bb-\	.
(8B-\J	24gg\	.
.	24ee-\	.
.	24cc\JJ)	.
4e- 4G\)	(8b-\L	.
.	8ggJ 8ee-\	.
=79	=79	=79
8EE-'\L	4ff 4dd\)	.
(8B-\J	.	.
!	!LO:MO:mod=*8va	!
*	*null	*
4d 4A-\)	(24bbb-\LL	.
.	24cccc\	.
.	24bbb-\	.
.	24aaa-\	.
.	24fff\	.
.	24ddd\JJ	.
!	!LO:MO:mod=*X8va	!
*	*null	*
8EE-'\L	24bb-\LL	.
.	24ccc\	.
.	24bb-\	.
(8B-\J	24aa-\	.
.	24ff\	.
.	24dd\JJ)	.
4d 4A-\)	(8b-\L	.
.	8aa-J 8ff\	.
!!LO:LB:g=original
=80	=80	=80
8EE-'\L	4gg 4ee-\)	.
(8B-\J	.	.
*	*8va	*
4e- 4G\)	(24eeee-\LL	<
.	24ffff\	.
.	24eeee-\	.
.	24bbb-\	.
.	24ggg\	.
.	24fff\JJ	.
*	*X8va	*
8EE-'\L	24eee-\LL	.
.	24fff\	.
.	24eee-\	.
(8B-\J	24bb-\	.
.	24gg\	.
!	!	!LO:MO:mod=.
.	24ff\JJ)	[
4e- 4G\)	(8ee-\L	.
!	!	!LO:MO:null:mod=[[
.	8eee-:J 8bb-: 8dd-X:\	.
=81	=81	=81
!	!	!LO:MO:null:mod=f
8AA-'\L	4eee-: 4aa-: 4cc:\)	.
(8e-\J	.	.
*	*8va	*
!	!	!LO:DY:rj:mod=
4a- 4c\)	(24eeee-\LL	f
.	24ffff\	.
.	24eeee-\	.
.	24cccc\	.
.	24aaa-\	.
.	24fff\JJ	.
*	*X8va	*
8AA-'\L	24eee-\LL	.
.	24fff\	.
.	24eee-\	.
(8e-\J	24ccc\	.
.	24aa-\	.
.	24ff\JJ)	.
4a- 4c\)	(8ee-\L	.
.	8aa-J 8ee- 8cc\	.
!!LO:LB:g=original
=82	=82	=82
8BB-'\L	4gg 4ee- 4b-\)	.
(8B-\J	.	.
!	!LO:MO:mod=*8va	!
*	*null	*
4e- 4G\)	(24bbb-\LL	.
.	24cccc\	.
.	24bbb-\	.
.	24ggg\	.
.	24eee-\	.
.	24ccc\JJ	.
!	!LO:MO:mod=*X8va	!
*	*null	*
8BB-'\L	24bb-\LL	.
.	24ccc\	.
.	24bb-\	.
(8B-\J	24gg\	.
.	24ee-\	.
.	24cc\JJ)	.
!	!	!LO:MO:mod=.
4e- 4G\)	(8b-\L	>
.	8ggJ 8ee- 8b-\	.
=83	=83	=83
8BBB-'\L	4ff 4dd 4a-\)	.
(8B-\J	.	.
!	!LO:MO:mod=*8va	!
*	*null	*
!	!	!LO:MO:null:mod=>
4d 4A-\)	(24bbb-\LL	.
.	24cccc\	.
.	24bbb-\	.
.	24aaa-\	.
.	24fff\	.
!	!	!LO:MO:mod=.
.	24ddd\JJ	]
!	!LO:MO:mod=*X8va	!
*	*null	*
8BBB-'\L	24bb-\LL	.
.	24ccc\	.
.	24bb-\	.
(8B-\J	24aa-\	.
.	24ff\	.
.	24dd\JJ)	.
4d 4A-\)	(8b-\L	.
!	!	!LO:MO:null:mod=]]
.	8ffJ 8b- 8a-\	.
!!LO:LB:g=original
=84	=84	=84
8EE-'\L	4ee- 4b- 4g\)	p
(8B-\J	.	.
!	!LO:MO:mod=*8va	!
*	*null	*
4e- 4G\)	(24bbb-\LL	.
.	24cccc\	.
.	24bbb-\	.
.	24ggg\	.
.	24eee-\	.
.	24ccc\JJ	.
!	!LO:MO:mod=*X8va	!
*	*null	*
8EE-'\L	24bb-\LL	.
.	24ccc\	.
.	24bb-\	.
(8B-\J	24gg\	.
.	24ee-\	.
.	24cc\JJ)	.
4e- 4G\)	(8b-\L	.
.	8ee-J 8g\	.
=85	=85	=85
8EE-'\L	4dd 4a-\)	.
(8B-\J	.	.
!	!LO:MO:mod=*8va	!
*	*null	*
4d 4A-\)	(24bbb-\LL	.
.	24cccc\	.
.	24bbb-\	.
.	24aaa-\	.
.	24fff\	.
.	24ddd\JJ	.
!	!LO:MO:mod=*X8va	!
*	*null	*
8EE-'\L	24bb-\LL	.
.	24ccc\	.
.	24bb-\	.
(8B-\J	24aa-\	.
.	24ff\	.
.	24dd\JJ)	.
4d 4A-\)	(8b-\L	.
.	8ffJ 8a-\	.
!!LO:LB:g=original
=86	=86	=86
8EE-'\L	4ee- 4g\)	.
(8B-\J	.	.
!	!LO:MO:mod=*8va	!
*	*null	*
4e- 4G\)	(24bbb-\LL	.
.	24cccc\	.
.	24bbb-\	.
.	24ggg\	.
.	24eee-\	.
.	24ccc\JJ	.
!	!LO:MO:mod=*X8va	!
*	*null	*
8EE-'\L	24bb-\LL	.
.	24ccc\	.
.	24bb-\	.
(8B-\J	24gg\	.
.	24ee-\	.
.	24cc\JJ)	.
4e- 4G\)	(8b-\L	.
.	8ggJ 8ee-\	.
=87	=87	=87
8EE-'\L	4ff 4dd\)	.
(8B-\J	.	.
!	!LO:MO:mod=*8va	!
*	*null	*
4d 4A-\)	(24bbb-\LL	.
.	24cccc\	.
.	24bbb-\	.
.	24aaa-\	.
.	24fff\	.
.	24ddd\JJ	.
!	!LO:MO:mod=*X8va	!
*	*null	*
8EE-'\L	24bb-\LL	.
.	24ccc\	.
.	24bb-\	.
(8B-\J	24aa-\	.
.	24ff\	.
.	24dd\JJ)	.
4d 4A-\)	(8b-\L	.
.	8aa-J 8ff\	.
!!LO:PB:g=original
=88	=88	=88
8EE-'\L	4gg 4ee-\)	.
(8B-\J	.	.
*	*8va	*
4e- 4G\)	(24eeee-\LL	<
.	24ffff\	.
.	24eeee-\	.
.	24bbb-\	.
.	24ggg\	.
.	24fff\JJ	.
*	*X8va	*
8EE-'\L	24eee-\LL	.
.	24fff\	.
.	24eee-\	.
(8B-\J	24bb-\	.
.	24gg\	.
!	!	!LO:MO:mod=.
.	24ff\JJ)	[
4e- 4G\)	(8ee-\L	.
!	!	!LO:MO:null:mod=[[
.	8eee-:J 8bb-: 8dd-X:\	.
=89	=89	=89
8AA-'\L	4eee-: 4aa-: 4cc:\)	f
(8e-\J	.	.
*	*8va	*
4a- 4c\)	(24eeee-\LL	.
.	24ffff\	.
.	24eeee-\	.
.	24cccc\	.
.	24aaa-\	.
.	24fff\JJ	.
*	*X8va	*
8AA-'\L	24eee-\LL	.
.	24fff\	.
.	24eee-\	.
(8e-\J	24ccc\	.
.	24aa-\	.
.	24ff\JJ)	.
4a- 4c\)	(8ee-\L	.
.	8aa-J 8ee- 8cc\	.
!!LO:LB:g=original
=90	=90	=90
8BB-'\L	4gg 4ee- 4b-\)	.
(8B-\J	.	.
!	!LO:MO:mod=*8va	!
*	*null	*
4e- 4G\)	(24bbb-\LL	.
.	24cccc\	.
.	24bbb-\	.
.	24ggg\	.
.	24eee-\	.
.	24ccc\JJ	.
!	!LO:MO:mod=*X8va	!
*	*null	*
8BB-'\L	24bb-\LL	.
.	24ccc\	.
.	24bb-\	.
(8B-\J	24gg\	.
.	24ee-\	.
.	24cc\JJ)	.
!	!	!LO:MO:mod=!null:null
!	!	!LO:HP:t=decrescendo
4e- 4G\)	(8b-\L	>
.	8ggJ 8ee- 8b-\	.
=91	=91	=91
8BBB-'\L	4ff 4dd 4a-\)	.
(8B-\J	.	.
!	!LO:MO:mod=*8va	!
*	*null	*
4d 4A-\)	(24bbb-\LL	.
.	24cccc\	.
.	24bbb-\	.
.	24aaa-\	.
.	24fff\	.
.	24ddd\JJ	.
!	!LO:MO:mod=*X8va	!
*	*null	*
8BBB-'\L	24bb-\LL	.
.	24ccc\	.
.	24bb-\	.
(8B-\J	24aa-\	.
.	24ff\	.
.	24dd\JJ)	.
4d 4A-\)	(8b-\L	.
!	!	!LO:MO:mod=.
.	.	>
!	!	!LO:MO:mod=.
.	8ffJ 8b- 8a-\	]]
!!LO:LB:g=original
=92	=92	=92
8EE-'\L	4ee- 4b- 4g\)	p
(8B-\J	.	.
!	!LO:MO:mod=*8va	!
*	*null	*
4e- 4G\)	(24bbb-\LL	.
.	24cccc\	.
.	24bbb-\	.
.	24ggg\	.
.	24eee-\	.
.	24ccc\JJ	.
!	!LO:MO:mod=*X8va	!
*	*null	*
8EE-'\L	24bb-\LL	.
.	24ccc\	.
.	24bb-\	.
(8B-\J	24gg\	.
.	24ee-\	.
.	24cc\JJ)	.
4e- 4G\)	8b-\L	.
.	(>8ggJ (<8b-\	.
=93	=93	=93
8EE-'\L	4ee-) 4g\)	.
(8B-\J	.	.
!	!LO:MO:mod=*8va	!
*	*null	*
!	!LO:MO:mod=!LO&colon;TX&colon;b&colon;i&colon;t=calando	!
!	!LO:TX:b:B:t=calando	!
4e- 4G\)	(24bbb-\LL	.
.	24cccc\	.
.	24bbb-\	.
.	24ggg\	.
.	24eee-\	.
.	24ccc\JJ	.
!	!LO:MO:mod=*X8va	!
*	*null	*
8EE-'\L	24bb-\LL	.
.	24ccc\	.
.	24bb-\	.
(8B-\J	24gg\	.
.	24ee-\	.
.	24cc\JJ)	.
4e- 4G\)	8b-\L	.
.	(>8ggJ (<8b-\	.
!!LO:LB:g=original
=94	=94	=94
(8EE-\L	4ee-) 4g\)	.
8BB-\	.	.
*	*8va	*
8G'\	(24bbb-\LL	.
.	24cccc\	.
.	24bbb-\	.
8B-'\J	24ggg\	.
.	24eee-\	.
.	24ggg\JJ	.
*clefG2	*	*
!	!	!LO:MO:mod=!LO&colon;HP&colon;t=sempre decresc.
!	!	!LO:HP:t=sempre decrescendo
8e-'\L	24bbb-\LL	>
.	24cccc\	.
.	24bbb-\	.
8g'\	24ggg\	.
.	24eee-\	.
.	24ggg\JJ	.
8b-'\	24bbb-\LL	.
.	24cccc\	.
.	24bbb-\	.
8ee-'\J)	24ggg\	.
.	24eee-\	.
.	24ggg\JJ	.
!!LO:LB:g=original
=95	=95	=95
4gg\	24bbb-\LL	.
.	24cccc\	.
.	24bbb-\	.
.	24ggg\	.
.	24eee-\	.
.	24ggg\JJ	.
4r	24bbb-\LL	.
.	24cccc\	.
.	24bbb-\	.
.	24ggg\	.
.	24eee-\	.
.	24ggg\JJ	.
4bb-\	24bbb-\LL	pp
.	24cccc\	.
.	24bbb-\	.
.	24ggg\	.
.	24eee-\	.
.	24ggg\JJ	.
4r	24bbb-\LL	.
.	24cccc\	.
.	24bbb-\	.
.	24ggg\	.
.	24eee-\	.
.	24ggg\JJ)	.
=96	=96	=96
4bb-: 4ee-:\	4eeee-: 4ggg: 4eee-:\	.
*	*X8va	*
4r	4r	.
4b-: 4e-:/	4eee-: 4gg: 4ee-:\	.
4r	4r	.
*clefF4	*	*
=97	=97	=97
1BB- 1EE-;	1e- 1G;	.
==	==	==
*-	*-	*-
!!!system-decoration: {(*)}
!!!RDF**kern: > = above
!!!RDF**kern: < = below
!!!filter-modern: shed -k -e "s/([^a-gA-Gn#X-])[<>]/$1/g" | shed -e "s/^(X?)tuplet$/$1TUPLET/I" | shed -e "s/:rj/:RJ/L" | shed -k -e "s/:TUP:/:tup:/L" | shed -e "s/TX(.*):t=P:/tx$1:t=P:/LG" | sic -sq | modori -m
!!!ENC: Andrzej Kubiczek
!!!END: 2022-02-07
!!!ENC: Andrzej Kubiczek
!!!END: 2022-02-16
!!!ENC-modern: Andrzej Kubiczek
!!!END-modern: 2022-08-09
